X:11
M:6/8
L:1/8
K:G
| DGA Bde | ded dBA | GAB deB | dBA GED | 
| BdB AGA | BAG EGD | EGG Bee | Add GED | 
gfe agf | ege dBd | FGD EFG | AGF GED :|| 

